_icons/SVG/113-chansey.svg

<svg xmlns="http://www.w3.org/2000/svg" width="32" height="32"><path fill="#F8A1C4" d="M20.067 30s4.549 3.206 6.375 1.5c2.705-2.527-9.25-5.875-9.25-5.875L20.067 30z"/><path fill="#F9ADC8" d="M11.966 30s-4.549 3.206-6.375 1.5c-2.705-2.527 9.25-5.875 9.25-5.875L11.966 30z"/><path fill="#FAB8CD" d="M5.478 3.842C4.207 3.661 3 3.518 3 4.5 3 5.687 5.375 6 5.375 6c-.598-.915-.285-1.671.103-2.158zM3.5 6.031c-.849.284-1.499.586-1.499 1.031.001.94.687.938 2.187.938.149 0 .314-.013.485-.032-.992-.463-1.189-1.31-1.173-1.937z"/><path fill="#FBCFD6" d="M11.239 2.237C10.094 2.946 8.362 3.921 7.375 4c-.539.043-1.227-.062-1.897-.158-.316.397-.574.975-.337 1.671-.556.183-1.133.348-1.641.518-.016.627.181 1.472 1.171 1.935.123.497.387 1.076.984 1.422.121-.064.251-.137.379-.207-2.623 4.392-4.146 9.679-2.048 15.209C6.636 31.377 16 30.996 16 30.996V0c-2.171 0-3.181.463-4.761 2.237z"/><path fill="#FAB8CD" d="M4.321 9.981c.227-.035.731-.273 1.333-.593-.692-.401-.948-1.122-1.041-1.657-.391.206-.752.426-1.042.688-1.312 1.187-.062 1.687.75 1.562z"/><path fill="#FFF3D9" d="M10 21s.5-7 6-7v7.916s-4.875.125-6-.916z"/><path fill="#F9ADC8" d="M26.522 3.842C27.793 3.661 29 3.518 29 4.5 29 5.687 26.625 6 26.625 6c.598-.915.285-1.671-.103-2.158zM28.5 6.031c.849.284 1.499.586 1.499 1.032-.001.939-.687.937-2.187.937-.149 0-.314-.013-.485-.032.992-.463 1.189-1.31 1.173-1.937z"/><path fill="#FAC4D1" d="M25.967 9.181l.379.207c.597-.346.861-.925.984-1.422.99-.463 1.186-1.308 1.171-1.935-.508-.17-1.085-.334-1.641-.518.237-.696-.021-1.274-.337-1.671-.671.096-1.359.201-1.898.158-.987-.079-2.719-1.054-3.864-1.763C19.181.463 18.171 0 16 0v30.996s9.364.381 12.014-6.606c2.098-5.53.575-10.817-2.047-15.209z"/><path fill="#F9ADC8" d="M27.679 9.981c-.227-.035-.731-.273-1.333-.593.692-.401.949-1.122 1.041-1.657.391.206.752.426 1.042.688 1.312 1.187.062 1.687-.75 1.562z"/><path fill="#FDEBBB" d="M22 21s-.5-7-6-7v7.916s4.667.167 6-.916z"/><path fill="#F9ADC8" d="M10 21s.396.916 6 .916V28s-6-.262-6-7z"/><path fill="#F8A1C4" d="M22 21s-.396.916-6 .916V28s6-.262 6-7z"/><ellipse fill="#373F3F" cx="13" cy="5.5" rx="1" ry="1.5"/><ellipse fill="#FFF" cx="13" cy="5.062" rx=".5" ry=".625"/><ellipse fill="#2B3332" cx="19" cy="5.5" rx="1" ry="1.5"/><ellipse fill="#F7F7F7" cx="19" cy="5.062" rx=".5" ry=".625"/><path fill="#F9ADC8" d="M22.711 14.407c-.666-.586-1.763-.533-2.351.115l-2.014 2.217c-.503.554-.453 1.352.117 1.853.569.501 1.476.546 2.104.103l1.961-1.382c1.032-.727 1.117-2.083.183-2.906z"/><path fill="#FAB8CD" d="M9.289 14.407c.666-.586 1.763-.533 2.351.115l2.014 2.217c.503.554.453 1.352-.117 1.853-.569.501-1.476.546-2.104.103l-1.961-1.382c-1.032-.727-1.117-2.083-.183-2.906z"/><path fill="#D84459" d="M16 8h-1.68a.249.249 0 00-.247.29c.05.297.182.767.526 1.14.393-.26.874-.419 1.401-.427V8z"/><path fill="#E55D53" d="M14.599 9.429c.289.313.726.556 1.401.567v-.993a2.611 2.611 0 00-1.401.426z"/><path fill="#C84054" d="M16.042 9c.543 0 1.039.163 1.443.429.345-.372.476-.843.526-1.14A.25.25 0 0017.764 8H16v1.003c.014 0 .027-.003.042-.003z"/><path fill="#D64F45" d="M17.484 9.429A2.612 2.612 0 0016.042 9c-.015 0-.028.003-.042.003v.993c.015 0 .026.004.042.004.701 0 1.147-.251 1.442-.571z"/></svg>

<?xml version="1.0" encoding="utf-8"?>
<!-- Generator: Adobe Illustrator 23.0.6, SVG Export Plug-In . SVG Version: 6.00 Build 0)  -->
<svg version="1.1" xmlns="http://www.w3.org/2000/svg" xmlns:xlink="http://www.w3.org/1999/xlink" x="0px" y="0px" width="32px"
	 height="32px" viewBox="0 0 32 32" enable-background="new 0 0 32 32" xml:space="preserve">
<g id="icons">
	<g>
		<path fill="#F8A1C4" d="M20.067,30c0,0,4.549,3.206,6.375,1.5c2.705-2.527-9.25-5.875-9.25-5.875L20.067,30z"/>
		<path fill="#F9ADC8" d="M11.966,30c0,0-4.549,3.206-6.375,1.5c-2.705-2.527,9.25-5.875,9.25-5.875L11.966,30z"/>
		<path fill="#FAB8CD" d="M5.478,3.842C4.207,3.661,3,3.518,3,4.5C3,5.687,5.375,6,5.375,6C4.777,5.085,5.09,4.329,5.478,3.842z"/>
		<path fill="#FAB8CD" d="M3.5,6.031C2.651,6.315,2.001,6.617,2.001,7.062C2.002,8.002,2.688,8,4.188,8
			c0.149,0,0.314-0.013,0.485-0.032C3.681,7.505,3.484,6.658,3.5,6.031z"/>
		<g>
			<path fill="#FBCFD6" d="M11.239,2.237C10.094,2.946,8.362,3.921,7.375,4C6.836,4.043,6.148,3.938,5.478,3.842
				C5.162,4.239,4.904,4.817,5.141,5.513C4.585,5.696,4.008,5.861,3.5,6.031C3.484,6.658,3.681,7.503,4.671,7.966
				c0.123,0.497,0.387,1.076,0.984,1.422c0.121-0.064,0.251-0.137,0.379-0.207C3.411,13.573,1.888,18.86,3.986,24.39
				C6.636,31.377,16,30.996,16,30.996V0C13.829,0,12.819,0.463,11.239,2.237z"/>
			<path fill="#FAB8CD" d="M4.321,9.981c0.227-0.035,0.731-0.273,1.333-0.593C4.962,8.987,4.706,8.266,4.613,7.731
				C4.222,7.937,3.861,8.157,3.571,8.419C2.259,9.606,3.509,10.106,4.321,9.981z"/>
		</g>
		<path fill="#FFF3D9" d="M10,21c0,0,0.5-7,6-7v7.916C16,21.916,11.125,22.041,10,21z"/>
		<path fill="#F9ADC8" d="M26.522,3.842C27.793,3.661,29,3.518,29,4.5C29,5.687,26.625,6,26.625,6
			C27.223,5.085,26.91,4.329,26.522,3.842z"/>
		<path fill="#F9ADC8" d="M28.5,6.031c0.849,0.284,1.499,0.586,1.499,1.032C29.998,8.002,29.312,8,27.812,8
			c-0.149,0-0.314-0.013-0.485-0.032C28.319,7.505,28.516,6.658,28.5,6.031z"/>
		<g>
			<path fill="#FAC4D1" d="M25.967,9.181c0.128,0.07,0.258,0.142,0.379,0.207c0.597-0.346,0.861-0.925,0.984-1.422
				c0.99-0.463,1.186-1.308,1.171-1.935c-0.508-0.17-1.085-0.334-1.641-0.518c0.237-0.696-0.021-1.274-0.337-1.671
				C25.852,3.938,25.164,4.043,24.625,4c-0.987-0.079-2.719-1.054-3.864-1.763C19.181,0.463,18.171,0,16,0v30.996
				c0,0,9.364,0.381,12.014-6.606C30.112,18.86,28.589,13.573,25.967,9.181z"/>
			<path fill="#F9ADC8" d="M27.679,9.981c-0.227-0.035-0.731-0.273-1.333-0.593c0.692-0.401,0.949-1.122,1.041-1.657
				c0.391,0.206,0.752,0.426,1.042,0.688C29.741,9.606,28.491,10.106,27.679,9.981z"/>
		</g>
		<path fill="#FDEBBB" d="M22,21c0,0-0.5-7-6-7v7.916C16,21.916,20.667,22.083,22,21z"/>
		<path fill="#F9ADC8" d="M10,21c0,0,0.396,0.916,6,0.916V28C16,28,10,27.738,10,21z"/>
		<path fill="#F8A1C4" d="M22,21c0,0-0.396,0.916-6,0.916V28C16,28,22,27.738,22,21z"/>
		<ellipse fill="#373F3F" cx="13" cy="5.5" rx="1" ry="1.5"/>
		<ellipse fill="#FFFFFF" cx="13" cy="5.062" rx="0.5" ry="0.625"/>
		<ellipse fill="#2B3332" cx="19" cy="5.5" rx="1" ry="1.5"/>
		<ellipse fill="#F7F7F7" cx="19" cy="5.062" rx="0.5" ry="0.625"/>
		<path fill="#F9ADC8" d="M22.711,14.407L22.711,14.407c-0.666-0.586-1.763-0.533-2.351,0.115l-2.014,2.217
			c-0.503,0.554-0.453,1.352,0.117,1.853l0,0c0.569,0.501,1.476,0.546,2.104,0.103l1.961-1.382
			C23.56,16.586,23.645,15.23,22.711,14.407z"/>
		<path fill="#FAB8CD" d="M9.289,14.407L9.289,14.407c0.666-0.586,1.763-0.533,2.351,0.115l2.014,2.217
			c0.503,0.554,0.453,1.352-0.117,1.853l0,0c-0.569,0.501-1.476,0.546-2.104,0.103l-1.961-1.382
			C8.44,16.586,8.355,15.23,9.289,14.407z"/>
		<g>
			<path fill="#D84459" d="M16,8h-1.68c-0.154,0-0.273,0.137-0.247,0.29c0.05,0.297,0.182,0.767,0.526,1.14
				C14.992,9.17,15.473,9.011,16,9.003V8z"/>
			<path fill="#E55D53" d="M14.599,9.429C14.888,9.742,15.325,9.985,16,9.996V9.003C15.473,9.011,14.992,9.17,14.599,9.429z"/>
			<path fill="#C84054" d="M16.042,9c0.543,0,1.039,0.163,1.443,0.429c0.345-0.372,0.476-0.843,0.526-1.14
				C18.036,8.137,17.918,8,17.764,8H16v1.003C16.014,9.003,16.027,9,16.042,9z"/>
			<path fill="#D64F45" d="M17.484,9.429C17.081,9.163,16.585,9,16.042,9C16.027,9,16.014,9.003,16,9.003v0.993
				c0.015,0,0.026,0.004,0.042,0.004C16.743,10,17.189,9.749,17.484,9.429z"/>
		</g>
	</g>
</g>
<g id="labels">
</g>
</svg>
